X: 598
U:~=!turn!
M:C
L:1/8
K:D
g | fdfg aeeg fdgf eBBg | fdfg aeeg | fdec dDDg |
fdfg aeeg | gdgf eBBg | fdge afbg | (f/g/a) df dD D |]


